X:247
T:Little France
C:Emory Lester ("Banjo Man" Bill Emerson) ("Pale Rider")
N:TablEdited bySteve Keating
L:1/8
Q:1/4=250
M:4/4
K:C
"Transcribed by""Steve Keating""First Break"z6 e^f | "A Part""G"ga ge dB GA | 
BG AG E^F GA | Bd e^f gf ag | "D"^fd ef ed ef | "G"ga ge dB GA | BG AG E^F GA | 
Bd e^f gd eB | "D"AG E^F "G"G2 e^f | g2 ge dB GA | BG AG E^F GA | Bd e^f gf ag | 
"D"^fa gf ed ef | "G"g2 ge dg ed | Bd zB dB Ac | B2 cB AG ^FE | "D"D^F Ac "G"B2 G2 | 
"B Part""G"DG BG DG BG | "Em"E^F GB AG EG | 
K:G
"G"DG BG c2 B2 | "D"cB AG FG AF | "G"DG BG c2 B2 | "Em"EF GB AG EF | "G"GA Bc dB cB | 
"D"AG EF "G"G2 GE | DG BG cG BG | "Em"EF GB AG FG | "G"DG BG cG BG | "D"cB AG FG AF | 
"G"DG BG cG BG | "Em"EF GB AG EF | "G"GA Bc dB cB | "D"AG EF "G"G4 | z8 | "Second Break""G"fg gg gg fg | 
gg fg gg fg | gg gg ge Bc | "D"dB cB AG EF | "G"GF GD EF GE | DB, zB, G,B, DG | 
EF GE DF GA | "D"BG AF "G"G2 GA | Bd BA dB Ad | Bd BA dB Ad | Bd BA dB AB | "D"cB A=F ^FA BA | 
"G"Ac Bd AF GA | Bd ef g2 fa | fg ga ge dc | "D"BG AF "G"G2 GE | DF GA (3cBB B2 | 
"Em"DF GB AG EF | "G"GA BA Bd eg | "D"fg ag gd ef | "G"g2 ga bg ag | "Em"ef ga gd ef | 
"G"gd Bc dB cB | "D"AG EF "G"G2 GE | DG BG cG BG | "Em"EF GB AG FG | "G"DG BG cG BG | 
"D"cB AG FG AF | "G"DG BG cG BG | "Em"EF GB AG EF | "G"GA Bc dB cB | "D"AG EF "G"G4 | 
z6 fg | "G"ga ge dB GA | Bd ef ga fa | gf ef ed B^c | "D"dA cA B2 {A}Bd | "G"eg ac' bc' d'2 | 
d'b ac' ba gb | ag ef ge dB | "D"AG ED "G"G2 ef | ga ge dB GA | Bd BA dB Ad | 
Bd BA dB AB | "D"cB A=F ^FA B2 | "G"Ac BG AF GA | Bd eg ad' b2 | d'b ac' ba gb | 
"D"ag ef "G"g4 | ga bd' c'2 b2 | "Em"d'e' d'b ag ed | "G"ga bd' e'g' d'e' | "D"d'b ab ge de | 
"G"ga bd' c'2 b2 | "Em"d'e' g'd' e'g' d'2 | "G"e'd' g'e' d'g' e'2 | "D"g'e' d'^a "G"bg ed | 
ga bd' e'f' d'f' | "Em"e'b d'e' zb d'e' | "G"g'e' g'g bd' e'b | "D"d'b ab "G"g4 | 
z8 | 
 

